file/oculus.svg

<svg clip-rule="evenodd" fill-rule="evenodd" stroke-linejoin="round" stroke-miterlimit="1.41421" viewBox="0 0 560 400" xmlns="http://www.w3.org/2000/svg"><path d="m677.8 481.9c-3.5 0-6.9 1.3-9.4 3.8s-3.8 6-3.8 9.4c0 3.5 1.2 6.9 3.7 9.5s5.9 3.9 9.4 3.9 6.9-1.3 9.4-3.8 3.8-6 3.8-9.4c0-3.5-1.2-6.9-3.7-9.5-2.6-2.5-6-3.9-9.4-3.9zm6.9 14.8c-.1.5-.2 1-.4 1.4s-.4.9-.6 1.3-.5.8-.8 1.1-.7.6-1 .9c-.4.2-.8.5-1.2.6-.4.2-.9.3-1.4.4s-1 .1-1.5.1-1 0-1.5-.2c-.5-.1-1-.2-1.4-.4s-.8-.4-1.2-.6-.7-.6-1-.9-.6-.7-.8-1.1-.5-.8-.6-1.3c-.2-.5-.3-1-.4-1.4-.1-.5-.1-1-.1-1.5s0-1 .2-1.5c.1-.5.2-1 .4-1.4s.4-.9.6-1.3.5-.8.8-1.1.7-.6 1-.9c.4-.2.8-.5 1.2-.6.4-.2.9-.3 1.4-.4s1-.1 1.5-.1 1 0 1.5.2c.5.1 1 .2 1.4.4l1.2.6c.4.2.7.6 1 .9s.6.7.8 1.1.5.8.6 1.3c.2.5.3 1 .4 1.4.1.5.1 1 .1 1.5s-.1 1-.2 1.5zm-56.2-25c-3.5-2.8-7.5-4.7-11.8-5.8-2.5-.6-5-.9-7.5-1-1.9-.1-3.8 0-5.6 0h-26.7-5.6c-2.5.1-5 .4-7.5 1-4.3 1-8.3 3-11.8 5.8-7 5.6-11 14.1-11 23 0 9 4.1 17.4 11 23 3.5 2.8 7.5 4.7 11.8 5.8 2.5.6 5 .9 7.5 1 1.9.1 3.8 0 5.6 0h32.3c2.5-.1 5-.4 7.5-1 4.3-1 8.3-3 11.8-5.8 7-5.6 11-14.1 11-23s-4-17.4-11-23zm-13.1 31.1c-1.3.9-2.8 1.5-4.3 1.7s-3.1.2-4.7.2h-32.4c-1.6 0-3.1 0-4.7-.2s-3-.8-4.3-1.7c-2.6-1.8-4.2-4.8-4.2-8s1.6-6.2 4.2-8c1.3-.9 2.8-1.5 4.3-1.7s3.1-.2 4.7-.2h32.4c1.6 0 3.1 0 4.7.2s3 .8 4.3 1.7c2.6 1.8 4.2 4.8 4.2 8 .1 3.2-1.5 6.2-4.2 8zm169.4-8.4v2.1c0 .4-.1.9-.2 1.4-.2.8-.4 1.6-.9 2.3-1.1 1.7-3.1 2.6-5.1 2.7-2 0-4-.8-5-2.6-.4-.8-.7-1.5-.9-2.4-.2-1.1-.3-2.3-.3-3.4v-2.2-3.8-6h-6v13.3c0 .7 0 1.5.1 2.2.2 1.7.5 3.4 1.2 5 1.6 3.2 4.7 5.1 8.1 5.5 1.7.2 3.5 0 5.1-.4 1.6-.5 3.3-1.3 4.4-2.5 0 .8.1 1.7.2 2.5h5.3v-25.4h-6zm32.4 3.5c-.9-2.5-3-4-5.3-4.8-1.3-.5-2.6-.8-3.9-1.1-.6-.1-1.2-.2-1.7-.4-.5-.1-1-.3-1.5-.5s-1-.5-1.4-1c-.3-.4-.5-.8-.4-1.3.1-.6.4-1 .8-1.4.3-.2.6-.4 1-.6.5-.2 1-.3 1.4-.4 1-.1 2 0 2.9.2 1.5.3 2.8.9 4.1 1.7 1-1.4 2-2.7 3-4.1-2-1.5-4.3-2.4-6.8-2.8-1.4-.2-2.8-.2-4.1 0-1.1.2-2.1.4-3.1.8-1.3.6-2.5 1.4-3.4 2.5-.7.8-1.2 1.7-1.4 2.7-.4 1.2-.4 2.5 0 3.8.4 1.2 1 2.1 1.9 2.9 1.9 1.6 4.5 2.2 6.8 2.7.8.2 1.6.3 2.4.6.6.2 1.3.4 1.9.8.4.3.9.6 1.2 1.1.2.4.4.8.3 1.3 0 .4-.2.8-.5 1.2s-.7.7-1.2.9c-.6.3-1.2.4-1.9.5-.9.1-1.8.1-2.7 0-1-.1-1.9-.4-2.9-.7-1.4-.5-2.7-1.3-3.9-2.2-1.1 1.4-2.1 2.9-3.2 4.3 1.9 1.6 4.1 2.7 6.5 3.5 1.3.4 2.7.6 4.1.6 1.1 0 2.2 0 3.3-.2 1.4-.2 2.8-.7 4-1.4.9-.6 1.7-1.2 2.3-2.1.8-1.1 1.4-2.3 1.5-3.7.4-1.2.3-2.3-.1-3.4zm-106.8 4.4c-1.4.3-2.9.3-4.3-.2s-2.6-1.3-3.5-2.5c-.8-1.2-1.3-2.6-1.4-4.1-.1-1.4.2-2.9.9-4.2.7-1.4 1.7-2.3 3.1-2.9.6-.2 1.2-.4 1.8-.5.8-.1 1.6-.2 2.4 0 1.5.2 2.8.7 4.1 1.5 1.2-1.5 2.4-3.1 3.7-4.6-2.1-1.7-4.5-2.6-7.1-2.9s-5.2.1-7.6 1.2c-2.4 1.2-4.3 2.9-5.6 5.3-1.2 2.3-1.7 5-1.6 7.5.1 2.6.9 5.2 2.4 7.3 1.5 2.2 3.7 3.7 6.2 4.6 2.5.8 5.2 1 7.7.4s4.9-1.8 6.8-3.7c-1.4-1.4-2.7-2.9-4.1-4.3-1.2 1.1-2.5 1.8-3.9 2.1zm43.1-33.4h6.4v38.9h-6.4zm-13 25.5v2.1c0 .4-.1.9-.2 1.4-.2.8-.4 1.6-.9 2.3-1.1 1.7-3.1 2.6-5.1 2.7-2 0-4-.8-5-2.6-.4-.8-.7-1.5-.9-2.4-.2-1.1-.3-2.3-.3-3.4v-2.2-3.8-6h-6v13.3c0 .7 0 1.5.1 2.2.2 1.7.5 3.4 1.2 5 1.6 3.2 4.7 5.1 8.1 5.5 1.7.2 3.5 0 5.1-.4 1.6-.5 3.3-1.3 4.4-2.5 0 .8.1 1.7.2 2.5h5.1v-25.4h-5.9z" fill-rule="nonzero" transform="matrix(1.50782 0 0 1.50782 -744.227 -545.918)"/></svg>

<?xml version="1.0" encoding="UTF-8" standalone="no"?>
<!DOCTYPE svg PUBLIC "-//W3C//DTD SVG 1.1//EN" "http://www.w3.org/Graphics/SVG/1.1/DTD/svg11.dtd">
<svg width="100%" height="100%" viewBox="0 0 560 400" version="1.1" xmlns="http://www.w3.org/2000/svg" xmlns:xlink="http://www.w3.org/1999/xlink" xml:space="preserve" xmlns:serif="http://www.serif.com/" style="fill-rule:evenodd;clip-rule:evenodd;stroke-linejoin:round;stroke-miterlimit:1.41421;">
    <g transform="matrix(1.50782,0,0,1.50782,-744.227,-545.918)">
        <path d="M677.8,481.9C674.3,481.9 670.9,483.2 668.4,485.7C665.9,488.2 664.6,491.7 664.6,495.1C664.6,498.6 665.8,502 668.3,504.6C670.8,507.2 674.2,508.5 677.7,508.5C681.2,508.5 684.6,507.2 687.1,504.7C689.6,502.2 690.9,498.7 690.9,495.3C690.9,491.8 689.7,488.4 687.2,485.8C684.6,483.3 681.2,481.9 677.8,481.9ZM684.7,496.7C684.6,497.2 684.5,497.7 684.3,498.1C684.1,498.5 683.9,499 683.7,499.4C683.5,499.8 683.2,500.2 682.9,500.5C682.6,500.8 682.2,501.1 681.9,501.4C681.5,501.6 681.1,501.9 680.7,502C680.3,502.2 679.8,502.3 679.3,502.4C678.8,502.5 678.3,502.5 677.8,502.5C677.3,502.5 676.8,502.5 676.3,502.3C675.8,502.2 675.3,502.1 674.9,501.9C674.5,501.7 674.1,501.5 673.7,501.3C673.3,501.1 673,500.7 672.7,500.4C672.4,500.1 672.1,499.7 671.9,499.3C671.7,498.9 671.4,498.5 671.3,498C671.1,497.5 671,497 670.9,496.6C670.8,496.1 670.8,495.6 670.8,495.1C670.8,494.6 670.8,494.1 671,493.6C671.1,493.1 671.2,492.6 671.4,492.2C671.6,491.8 671.8,491.3 672,490.9C672.2,490.5 672.5,490.1 672.8,489.8C673.1,489.5 673.5,489.2 673.8,488.9C674.2,488.7 674.6,488.4 675,488.3C675.4,488.1 675.9,488 676.4,487.9C676.9,487.8 677.4,487.8 677.9,487.8C678.4,487.8 678.9,487.8 679.4,488C679.9,488.1 680.4,488.2 680.8,488.4C681.2,488.6 681.6,488.8 682,489C682.4,489.2 682.7,489.6 683,489.9C683.3,490.2 683.6,490.6 683.8,491C684,491.4 684.3,491.8 684.4,492.3C684.6,492.8 684.7,493.3 684.8,493.7C684.9,494.2 684.9,494.7 684.9,495.2C684.9,495.7 684.8,496.2 684.7,496.7ZM628.5,471.7C625,468.9 621,467 616.7,465.9C614.2,465.3 611.7,465 609.2,464.9C607.3,464.8 605.4,464.9 603.6,464.9L576.9,464.9L571.3,464.9C568.8,465 566.3,465.3 563.8,465.9C559.5,466.9 555.5,468.9 552,471.7C545,477.3 541,485.8 541,494.7C541,503.7 545.1,512.1 552,517.7C555.5,520.5 559.5,522.4 563.8,523.5C566.3,524.1 568.8,524.4 571.3,524.5C573.2,524.6 575.1,524.5 576.9,524.5L609.2,524.5C611.7,524.4 614.2,524.1 616.7,523.5C621,522.5 625,520.5 628.5,517.7C635.5,512.1 639.5,503.6 639.5,494.7C639.5,485.8 635.5,477.3 628.5,471.7ZM615.4,502.8C614.1,503.7 612.6,504.3 611.1,504.5C609.6,504.7 608,504.7 606.4,504.7L574,504.7C572.4,504.7 570.9,504.7 569.3,504.5C567.7,504.3 566.3,503.7 565,502.8C562.4,501 560.8,498 560.8,494.8C560.8,491.6 562.4,488.6 565,486.8C566.3,485.9 567.8,485.3 569.3,485.1C570.8,484.9 572.4,484.9 574,484.9L606.4,484.9C608,484.9 609.5,484.9 611.1,485.1C612.7,485.3 614.1,485.9 615.4,486.8C618,488.6 619.6,491.6 619.6,494.8C619.7,498 618.1,501 615.4,502.8ZM784.8,494.4L784.8,496.5C784.8,496.9 784.7,497.4 784.6,497.9C784.4,498.7 784.2,499.5 783.7,500.2C782.6,501.9 780.6,502.8 778.6,502.9C776.6,502.9 774.6,502.1 773.6,500.3C773.2,499.5 772.9,498.8 772.7,497.9C772.5,496.8 772.4,495.6 772.4,494.5L772.4,492.3L772.4,488.5L772.4,482.5L766.4,482.5L766.4,495.8C766.4,496.5 766.4,497.3 766.5,498C766.7,499.7 767,501.4 767.7,503C769.3,506.2 772.4,508.1 775.8,508.5C777.5,508.7 779.3,508.5 780.9,508.1C782.5,507.6 784.2,506.8 785.3,505.6C785.3,506.4 785.4,507.3 785.5,508.1L790.8,508.1L790.8,482.7L784.8,482.7L784.8,494.4ZM817.2,497.9C816.3,495.4 814.2,493.9 811.9,493.1C810.6,492.6 809.3,492.3 808,492C807.4,491.9 806.8,491.8 806.3,491.6C805.8,491.5 805.3,491.3 804.8,491.1C804.3,490.9 803.8,490.6 803.4,490.1C803.1,489.7 802.9,489.3 803,488.8C803.1,488.2 803.4,487.8 803.8,487.4C804.1,487.2 804.4,487 804.8,486.8C805.3,486.6 805.8,486.5 806.2,486.4C807.2,486.3 808.2,486.4 809.1,486.6C810.6,486.9 811.9,487.5 813.2,488.3C814.2,486.9 815.2,485.6 816.2,484.2C814.2,482.7 811.9,481.8 809.4,481.4C808,481.2 806.6,481.2 805.3,481.4C804.2,481.6 803.2,481.8 802.2,482.2C800.9,482.8 799.7,483.6 798.8,484.7C798.1,485.5 797.6,486.4 797.4,487.4C797,488.6 797,489.9 797.4,491.2C797.8,492.4 798.4,493.3 799.3,494.1C801.2,495.7 803.8,496.3 806.1,496.8C806.9,497 807.7,497.1 808.5,497.4C809.1,497.6 809.8,497.8 810.4,498.2C810.8,498.5 811.3,498.8 811.6,499.3C811.8,499.7 812,500.1 811.9,500.6C811.9,501 811.7,501.4 811.4,501.8C811.1,502.2 810.7,502.5 810.2,502.7C809.6,503 809,503.1 808.3,503.2C807.4,503.3 806.5,503.3 805.6,503.2C804.6,503.1 803.7,502.8 802.7,502.5C801.3,502 800,501.2 798.8,500.3C797.7,501.7 796.7,503.2 795.6,504.6C797.5,506.2 799.7,507.3 802.1,508.1C803.4,508.5 804.8,508.7 806.2,508.7C807.3,508.7 808.4,508.7 809.5,508.5C810.9,508.3 812.3,507.8 813.5,507.1C814.4,506.5 815.2,505.9 815.8,505C816.6,503.9 817.2,502.7 817.3,501.3C817.7,500.1 817.6,499 817.2,497.9ZM710.4,502.3C709,502.6 707.5,502.6 706.1,502.1C704.7,501.6 703.5,500.8 702.6,499.6C701.8,498.4 701.3,497 701.2,495.5C701.1,494.1 701.4,492.6 702.1,491.3C702.8,489.9 703.8,489 705.2,488.4C705.8,488.2 706.4,488 707,487.9C707.8,487.8 708.6,487.7 709.4,487.9C710.9,488.1 712.2,488.6 713.5,489.4C714.7,487.9 715.9,486.3 717.2,484.8C715.1,483.1 712.7,482.2 710.1,481.9C707.5,481.6 704.9,482 702.5,483.1C700.1,484.3 698.2,486 696.9,488.4C695.7,490.7 695.2,493.4 695.3,495.9C695.4,498.5 696.2,501.1 697.7,503.2C699.2,505.4 701.4,506.9 703.9,507.8C706.4,508.6 709.1,508.8 711.6,508.2C714.1,507.6 716.5,506.4 718.4,504.5C717,503.1 715.7,501.6 714.3,500.2C713.1,501.3 711.8,502 710.4,502.3ZM753.5,468.9L759.9,468.9L759.9,507.8L753.5,507.8L753.5,468.9ZM740.5,494.4L740.5,496.5C740.5,496.9 740.4,497.4 740.3,497.9C740.1,498.7 739.9,499.5 739.4,500.2C738.3,501.9 736.3,502.8 734.3,502.9C732.3,502.9 730.3,502.1 729.3,500.3C728.9,499.5 728.6,498.8 728.4,497.9C728.2,496.8 728.1,495.6 728.1,494.5L728.1,492.3L728.1,488.5L728.1,482.5L722.1,482.5L722.1,495.8C722.1,496.5 722.1,497.3 722.2,498C722.4,499.7 722.7,501.4 723.4,503C725,506.2 728.1,508.1 731.5,508.5C733.2,508.7 735,508.5 736.6,508.1C738.2,507.6 739.9,506.8 741,505.6C741,506.4 741.1,507.3 741.2,508.1L746.3,508.1L746.3,482.7L740.4,482.7L740.5,494.4Z" style="fill-rule:nonzero;"/>
    </g>
</svg>
